src/assets/filled/MessageAdd.svg

<svg width="24" height="24" viewBox="0 0 24 24"  xmlns="http://www.w3.org/2000/svg">
<path d="M5.21 13.5098C4.12 13.4398 3 13.8398 2.17 14.6698C0.61 16.2298 0.61 18.7598 2.17 20.3298C2.7 20.8598 3.35 21.2098 4.04 21.3798C4.42 21.4798 4.82 21.5098 5.22 21.4898C6.17 21.4498 7.1 21.0698 7.83 20.3398C8.86 19.3098 9.21 17.8598 8.88 16.5498C8.72 15.8598 8.36 15.2098 7.83 14.6798C7.11 13.9498 6.17 13.5598 5.21 13.5098ZM7.24 17.4798C7.24 17.6898 7.16 17.8698 7.02 18.0098C6.88 18.1498 6.7 18.2298 6.49 18.2298H5.75V19.0098C5.75 19.2198 5.67 19.3998 5.53 19.5398C5.39 19.6798 5.21 19.7598 5 19.7598C4.59 19.7598 4.25 19.4198 4.25 19.0098V18.2298H3.5C3.09 18.2298 2.75 17.8898 2.75 17.4798C2.75 17.0698 3.09 16.7298 3.5 16.7298H4.25V16.0198C4.25 15.6098 4.59 15.2698 5 15.2698C5.41 15.2698 5.75 15.6098 5.75 16.0198V16.7298H6.49C6.91 16.7298 7.24 17.0698 7.24 17.4798Z" />
<path d="M17.25 2.43018H7.75C4.9 2.43018 3 4.33018 3 7.18018V11.6402C3 11.9902 3.36 12.2402 3.7 12.1502C4.12 12.0502 4.55 12.0002 5 12.0002C7.86 12.0002 10.22 14.3202 10.48 17.1302C10.5 17.4102 10.73 17.6302 11 17.6302H11.55L15.78 20.4502C16.4 20.8702 17.25 20.4102 17.25 19.6502V17.6302C18.67 17.6302 19.86 17.1502 20.69 16.3302C21.52 15.4902 22 14.3002 22 12.8802V7.18018C22 4.33018 20.1 2.43018 17.25 2.43018ZM15.83 10.8102H9.17C8.78 10.8102 8.46 10.4902 8.46 10.1002C8.46 9.70018 8.78 9.38018 9.17 9.38018H15.83C16.22 9.38018 16.54 9.70018 16.54 10.1002C16.54 10.4902 16.22 10.8102 15.83 10.8102Z" />
</svg>

<?xml version="1.0" encoding="UTF-8"?>
<svg width="24" height="24" viewBox="0 0 24 24" xmlns="http://www.w3.org/2000/svg">
 <path d="m5.21 13.51c-1.09-0.07-2.21 0.33-3.04 1.16-1.56 1.56-1.56 4.09 0 5.66 0.53 0.53 1.18 0.88 1.87 1.05 0.38 0.1 0.78 0.13 1.18 0.11 0.95-0.04 1.88-0.42 2.61-1.15 1.03-1.03 1.38-2.48 1.05-3.79-0.16-0.69-0.52-1.34-1.05-1.87-0.72-0.73-1.66-1.12-2.62-1.17zm2.03 3.97c0 0.21-0.08 0.39-0.22 0.53s-0.32 0.22-0.53 0.22h-0.74v0.78c0 0.21-0.08 0.39-0.22 0.53s-0.32 0.22-0.53 0.22c-0.41 0-0.75-0.34-0.75-0.75v-0.78h-0.75c-0.41 0-0.75-0.34-0.75-0.75s0.34-0.75 0.75-0.75h0.75v-0.71c0-0.41 0.34-0.75 0.75-0.75s0.75 0.34 0.75 0.75v0.71h0.74c0.42 0 0.75 0.34 0.75 0.75z"/>
 <path d="m17.25 2.4302h-9.5c-2.85 0-4.75 1.9-4.75 4.75v4.46c0 0.35 0.36 0.6 0.7 0.51 0.42-0.1 0.85-0.15 1.3-0.15 2.86 0 5.22 2.32 5.48 5.13 0.02 0.28 0.25 0.5 0.52 0.5h0.55l4.23 2.82c0.62 0.42 1.47-0.04 1.47-0.8v-2.02c1.42 0 2.61-0.48 3.44-1.3 0.83-0.84 1.31-2.03 1.31-3.45v-5.7c0-2.85-1.9-4.75-4.75-4.75zm-1.42 8.38h-6.66c-0.39 0-0.71-0.32-0.71-0.71 0-0.40002 0.32-0.72002 0.71-0.72002h6.66c0.39 0 0.71 0.32 0.71 0.72002 0 0.39-0.32 0.71-0.71 0.71z"/>
</svg>
